!!!COM: Haydn, Franz Joseph
!!!OTL: String Quartet in E-flat Major
!!!OPS: Opus 76
!!!ONM: No. 6
!!!OMD: Allegretto---Allegro
!!!OMV: 1
!!!SCT: H III:80
!!!SCA: Thematisch-bibliographisches Werkevererzeichnis (A. van Hoboken)
!!!YOR: Trautwein Edition
!!!ENC: Frances Bennion
!!!CDT: 1732/3/31/-1809/5/31/
!!!CNT: Oesterreich
!!!YEC: Copyright (c) 1994, 2000 Center for Computer Assisted Research in the Humanities
!!!YEM: Rights to all derivative editions reserved.
!!!YEM: Refer to licensing agreement for further details.
!!!YEN: United States of America
**kern	**kern	**kern	**kern	**kern	**kern
*k[b-e-a-]	*k[b-e-a-]	*k[b-e-a-]	*k[b-e-a-]	*k[b-e-a-]	*k[b-e-a-]
*E-:	*E-:	*E-:	*E-:	*E-:	*E-:
*clefF4	*clefC3	*clefC3	*clefF	*clefF	*clefF
*M2/4	*M2/4	*M2/4	*M2/4	*M2/4	*M2/4
4..r	4..r	4..r	4..r	4..r	4..r
16r	16r	16r	16r	16r	16b-
=1	=1	=1	=1	=1	=1
4E-	2r	4B-	2r	[2e-	4g
4C	.	4c	.	.	4a-
=2	=2	=2	=2	=2	=2
8GG	2r	8B-	2r	8e-]	8b-
4.r	.	4.r	.	4.r	4r
.	.	.	.	.	16r
.	.	.	.	.	16cc
=3	=3	=3	=3	=3	=3
4A-	2r	2B-	2r	4d	4f
4G	.	.	.	4e	4g
=4	=4	=4	=4	=4	=4
8F	2r	8c	2r	8f	8a-
4.r	.	4.r	.	4.r	4r
.	.	.	.	.	16r
.	.	.	.	.	16b-
=5	=5	=5	=5	=5	=5
4G	2r	4B-	2r	4e-	4e-
4F	.	4A-	.	4d 4B-	4f
=6	=6	=6	=6	=6	=6
8E-	2r	8G	2r	8B- 8e-	8g
4.r	.	4.r	.	4.r	4r
.	.	.	.	.	16r
.	.	.	.	.	16e-
=7	=7	=7	=7	=7	=7
4C	2r	4E-	2r	2e-	4a-
4C-	.	4G-	.	.	4a
=8	=8	=8	=8	=8	=8
8BB-	4..r	8B-	4..r	8d	8b-
4r	.	4r	.	4r	4r
16r	.	16r	.	16r	16r
16r	16r	16r	16r	16r	16b-
=9	=9	=9	=9	=9	=9
4G	2r	4B-	2r	4e-	4ee-
4F	.	4A-	.	4f	4dd-
=10	=10	=10	=10	=10	=10
8E	2r	8G	2r	8g	8cc
4.r	.	4r	.	4r	4r
.	.	16r	.	16r	16r
.	.	16e	.	16gg	16bb-
=11	=11	=11	=11	=11	=11
2r	2r	4f	2r	4ff	4aa-
.	.	4g	.	4dd-	4ee
=12	=12	=12	=12	=12	=12
4..r	2r	8a-	2r	8cc	8ff
.	.	4r	.	4r	4r
.	.	16r	.	16r	16r
16E	.	16c	.	16gg	16bb-
=13	=13	=13	=13	=13	=13
8.F	2r	8.a-	2r	8.ff	8.aa-
16G	.	16g	.	16b-	16ee
8.A-	.	8.f	.	8.cc	8.ff
16D	.	16B-	.	16ff	16aa-
=14	=14	=14	=14	=14	=14
8.E-	2r	8.g	2r	8.ee-	8.gg
16F	.	16f	.	16a-	16dd
8.G	.	8.e-	.	8.b-	8.ee-
16GG	.	16e-	.	16b-	16dd
=15	=15	=15	=15	=15	=15
4..AA-	2r	8.e-	2r	8.a-	8.cc
.	.	16e	.	16g	16b-
.	.	8.f	.	8.f	8.a-
16AA	.	16c	.	16e-	16g
=16	=16	=16	=16	=16	=16
4.BB-	2r	4.B-	2r	4e-	4g
.	.	.	.	8d	8f
8r	.	8r	.	8r	16r
.	.	.	.	.	16b-
=17	=17	=17	=17	=17	=17
4E-	2r	4B-	2r	[2e-	4g
4C	.	4c	.	.	4a-
=18	=18	=18	=18	=18	=18
8GG	2r	8B-	2r	8e-]	8b-
4.r	.	4.r	.	4.r	4r
.	.	.	.	.	16r
.	.	.	.	.	16cc
=19	=19	=19	=19	=19	=19
4BB-	2r	[2B-	2r	4d	4f
4EE-	.	.	.	4e-	4g
=20	=20	=20	=20	=20	=20
8BB-	2r	8B-]	2r	8d	8f
4.r	.	4.r	.	4.r	4r
.	.	.	.	.	16r
.	.	.	.	.	16b-
=21	=21	=21	=21	=21	=21
2E-	2r	4B-	2r	4d-	4g
.	.	4A-	.	4c	8.a-
.	.	.	.	.	32g
.	.	.	.	.	32a-
=22	=22	=22	=22	=22	=22
8D-	2r	8E-	2r	8G	8b-
4.r	.	4.r	.	4.r	4r
.	.	.	.	.	16r
.	.	.	.	.	16ee-
=23	=23	=23	=23	=23	=23
4C	2r	4E-	2r	4A-	8a-
.	.	.	.	.	4r
4r	.	4r	.	4r	.
.	.	.	.	.	16r
.	.	.	.	.	16cc
=24	=24	=24	=24	=24	=24
4AA-	2r	4F	2r	4c	8f
.	.	.	.	.	4r
4r	.	4r	.	4r	.
.	.	.	.	.	16r
.	.	.	.	.	16cc-
=25	=25	=25	=25	=25	=25
4FF	2r	4A-	2r	4c-	8d
.	.	.	.	.	4r
4r	.	8.r	.	8.r	.
.	.	.	.	.	16r
.	.	16a-	.	16d	16cc-
=26	=26	=26	=26	=26	=26
4GG	2r	4g	2r	4b-	8e-
.	.	.	.	.	16r
.	.	.	.	.	16b-
4AA-	.	4f	.	4a-	8c
.	.	.	.	.	16r
.	.	.	.	.	16a-
=27	=27	=27	=27	=27	=27
4BB-	2r	4e-	2r	4g	8B-
.	.	.	.	.	16r
.	.	.	.	.	16g
4BB-	.	4d	.	4f	8A-
.	.	.	.	.	16r
.	.	.	.	.	16f
=28	=28	=28	=28	=28	=28
[2E-	2r	4e-	2r	2e-	8.G
.	.	.	.	.	16B-
.	.	4G	.	.	8.e-
.	.	.	.	.	16e-
=29	=29	=29	=29	=29	=29
2E-_	2r	2A-	2r	2d	8.f
.	.	.	.	.	16g
.	.	.	.	.	8.a-
.	.	.	.	.	16cc
=30	=30	=30	=30	=30	=30
2E-_	2r	2G	2r	2e-	8.b-
.	.	.	.	.	16dd
.	.	.	.	.	8.ee-
.	.	.	.	.	16e-
=31	=31	=31	=31	=31	=31
2E-]	2r	2A-	2r	2d	8.f
.	.	.	.	.	16g
.	.	.	.	.	8.a-
.	.	.	.	.	16cc
=32	=32	=32	=32	=32	=32
[2EE-	2r	2G	2r	2e-	8.b-
.	.	.	.	.	16g
.	.	.	.	.	8.e-
.	.	.	.	.	16e-
=33	=33	=33	=33	=33	=33
2EE-_	2r	2A-	2r	2d	16g
.	.	.	.	.	16f
.	.	.	.	.	16a-
.	.	.	.	.	16g
.	.	.	.	.	16b-
.	.	.	.	.	16a-
.	.	.	.	.	16cc
.	.	.	.	.	16b-
=34	=34	=34	=34	=34	=34
2EE-_	2r	2G	2r	2e-	8.b-
.	.	.	.	.	16ee-
.	.	.	.	.	8gg
.	.	.	.	.	16r
.	.	.	.	.	16e-
=35	=35	=35	=35	=35	=35
2EE-_	2r	2A-	2r	2d	8.f
.	.	.	.	.	16g
.	.	.	.	.	8.a-
.	.	.	.	.	16d
=36	=36	=36	=36	=36	=36
8EE-]	4..r	8G	4..r	8e-	8e-
4r	.	4r	.	4r	4r
16r	.	16r	.	16r	16r
16r	16r	16r	16r	16b-	16r
=37	=37	=37	=37	=37	=37
2r	2r	2r	2r	4g	8r
.	.	.	.	.	4bb-
.	.	.	.	4a-	.
.	.	.	.	.	[8ccc
=38	=38	=38	=38	=38	=38
2r	2r	2r	2r	8b-	8ccc]
.	.	.	.	4r	8ee-
.	.	.	.	.	8dd
.	.	.	.	16r	8r
.	.	.	.	16cc	.
=39	=39	=39	=39	=39	=39
2r	2r	2r	2r	4f	8r
.	.	.	.	.	4aa-
.	.	.	.	4g	.
.	.	.	.	.	[8ee
=40	=40	=40	=40	=40	=40
2r	2r	2r	2r	8a-	8ee]
.	.	.	.	4r	8gg
.	.	.	.	.	8ff
.	.	.	.	16r	8ff#
.	.	.	.	16b-	.
=41	=41	=41	=41	=41	=41
2r	2r	2r	2r	4e-	8gg
.	.	.	.	.	4gg
.	.	.	.	4f	.
.	.	.	.	.	[8dd
=42	=42	=42	=42	=42	=42
2r	2r	2r	2r	8g	8dd]
.	.	.	.	4r	8ff
.	.	.	.	.	8ee-
.	.	.	.	16r	8bb-
.	.	.	.	16e-	.
=43	=43	=43	=43	=43	=43
2r	2r	2r	2r	4a-	8cc
.	.	.	.	.	4ff
.	.	.	.	4a	.
.	.	.	.	.	[8ee-
=44	=44	=44	=44	=44	=44
4..r	4..r	4..r	4..r	8b-	8ee-]
.	.	.	.	4r	8dd
.	.	.	.	.	8b-
.	.	.	.	16r	16r
16r	16r	16r	16r	16b-	16r
=45	=45	=45	=45	=45	=45
2r	2r	2r	2r	4ee-	16g
.	.	.	.	.	16b-
.	.	.	.	.	16a-
.	.	.	.	.	16g
.	.	.	.	4dd-	16f
.	.	.	.	.	16a-
.	.	.	.	.	16g
.	.	.	.	.	16f
=46	=46	=46	=46	=46	=46
2r	2r	2r	2r	8cc	16e
.	.	.	.	.	16g
.	.	.	.	4r	16b-
.	.	.	.	.	16cc
.	.	.	.	.	16dd-
.	.	.	.	.	16b-
.	.	.	.	16r	16g
.	.	.	.	16bb-	16e
=47	=47	=47	=47	=47	=47
2r	2r	2r	2r	4aa-	16f
.	.	.	.	.	16a-
.	.	.	.	.	16g
.	.	.	.	.	16f
.	.	.	.	4ee	16g
.	.	.	.	.	16b-
.	.	.	.	.	16a-
.	.	.	.	.	16g
=48	=48	=48	=48	=48	=48
2r	2r	2r	2r	8ff	16a-
.	.	.	.	.	16b-
.	.	.	.	4r	16cc
.	.	.	.	.	16b-
.	.	.	.	.	16a-
.	.	.	.	.	16g
.	.	.	.	16r	16f
.	.	.	.	16bb-	16e
=49	=49	=49	=49	=49	=49
2r	2r	2r	2r	8.aa-	16f
.	.	.	.	.	16e
.	.	.	.	.	16f
.	.	.	.	16ee	16g
.	.	.	.	8.ff	16a-
.	.	.	.	.	16g
.	.	.	.	.	16a-
.	.	.	.	16aa-	16d
=50	=50	=50	=50	=50	=50
2r	2r	2r	2r	8.gg	16e-
.	.	.	.	.	16d
.	.	.	.	.	16e-
.	.	.	.	16dd	16f
.	.	.	.	8.ee-	16g
.	.	.	.	.	16f#
.	.	.	.	.	16g
.	.	.	.	16dd	16G
=51	=51	=51	=51	=51	=51
2r	2r	2r	2r	8.cc	16A-
.	.	.	.	.	16c
.	.	.	.	.	16e-
.	.	.	.	16b-	16e
.	.	.	.	8.a-	16f
.	.	.	.	.	16d
.	.	.	.	.	16e-
.	.	.	.	16g	16A
=52	=52	=52	=52	=52	=52
2r	2r	2r	2r	4g	16B-
.	.	.	.	.	16e-
.	.	.	.	.	16g
.	.	.	.	.	16e-
.	.	.	.	8f	8B-
.	.	.	.	16r	8r
.	.	.	.	16b-	.
=53	=53	=53	=53	=53	=53
4E-	2r	4B-	2r	4g	[2ee-
4C	.	4e-	.	4a-	.
=54	=54	=54	=54	=54	=54
8GG	2r	8E-	2r	8b-	2ee-_
4r	.	4.r	.	4r	.
16r	.	.	.	16r	.
16AA-	.	.	.	16cc	.
=55	=55	=55	=55	=55	=55
4BB-	2r	2r	2r	4f	8ee-]
.	.	.	.	.	4dd
4EE-	.	.	.	4g	.
.	.	.	.	.	[8cc
=56	=56	=56	=56	=56	=56
4DD	2r	2r	2r	4f	8cc]
.	.	.	.	.	8cc-
4r	.	.	.	4r	8b-
.	.	.	.	.	8a-
=57	=57	=57	=57	=57	=57
2E-	2r	4B-	2r	4d-	4g
.	.	4A-	.	4c	8.a-
.	.	.	.	.	32g
.	.	.	.	.	32a-
=58	=58	=58	=58	=58	=58
8D-	2r	8E-	2r	8G	8b-
4r	.	4r	.	4r	4.r
16r	.	16r	.	16r	.
16G	.	16d-	.	16ee-	.
=59	=59	=59	=59	=59	=59
8A-	2r	8c	2r	8a-	8.r
4r	.	4r	.	4r	.
.	.	.	.	.	16ee-
.	.	.	.	.	8ccc
16r	.	16r	.	16r	8r
16E	.	16B-	.	16cc	.
=60	=60	=60	=60	=60	=60
8F	2r	8A-	2r	8f	8.r
4r	.	4r	.	4r	.
.	.	.	.	.	16cc
.	.	.	.	.	8aa-
16r	.	16r	.	16r	8r
16D	.	16F	.	16cc-	.
=61	=61	=61	=61	=61	=61
8F	2r	8A-	2r	8d	8.r
4r	.	4r	.	4r	.
.	.	.	.	.	16cc-
.	.	.	.	.	8aa-
16r	.	16r	.	16r	8r
16FF	.	16d	.	16cc-	.
=62	=62	=62	=62	=62	=62
4GG	2r	4e-	2r	8e-	4b-
.	.	.	.	16r	.
.	.	.	.	16b-	.
4AA-	.	4f	.	8c	4a-
.	.	.	.	16r	.
.	.	.	.	16a-	.
=63	=63	=63	=63	=63	=63
4BB-	2r	4e-	2r	8B-	4g
.	.	.	.	16r	.
.	.	.	.	16g	.
4BB-	.	4d	.	8A-	4f
.	.	.	.	16r	.
.	.	.	.	16f	.
=64	=64	=64	=64	=64	=64
[2E-	2r	4e-	2r	8.G	4e-
.	.	.	.	16B-	.
.	.	4g	.	8.e-	8.r
.	.	.	.	16e-	16ee-
=65	=65	=65	=65	=65	=65
2E-_	2r	4a-	2r	8.f	8.dd
.	.	.	.	16g	16ee-
.	.	4d	.	8.a-	8.ff
.	.	.	.	16cc	16aa-
=66	=66	=66	=66	=66	=66
2E-_	2r	4e-	2r	8.b-	8.gg
.	.	.	.	16dd	16ff
.	.	4G	.	8.ee-	8ee-
.	.	.	.	.	8r
.	.	.	.	16e-	.
=67	=67	=67	=67	=67	=67
2E-]	2r	2A-	2r	8.f	2d
.	.	.	.	16g	.
.	.	.	.	8.a-	.
.	.	.	.	16cc	.
=68	=68	=68	=68	=68	=68
[2EE-	2r	2G	2r	8.b-	2e-
.	.	.	.	16g	.
.	.	.	.	8.e-	.
.	.	.	.	16e-	.
=69	=69	=69	=69	=69	=69
2EE-_	2r	2F	2r	16g	2d 2A-
.	.	.	.	16f	.
.	.	.	.	16a-	.
.	.	.	.	16g	.
.	.	.	.	16b-	.
.	.	.	.	16a-	.
.	.	.	.	16cc	.
.	.	.	.	16b-	.
=70	=70	=70	=70	=70	=70
2EE-_	2r	2G	2r	8.b-	2G 2e-
.	.	.	.	16ee-	.
.	.	.	.	8gg	.
.	.	.	.	16r	.
.	.	.	.	16e-	.
=71	=71	=71	=71	=71	=71
2EE-_	2r	2F	2r	8.f	2d 2A-
.	.	.	.	16g	.
.	.	.	.	8.a-	.
.	.	.	.	16d	.
=72	=72	=72	=72	=72	=72
4EE-]	4..r	4G	4..r	4e-	4G 4e-
8.r	.	8.r	.	8.r	8.r
16BB-	16r	16r	16r	16b-	16b-
=73	=73	=73	=73	=73	=73
4GG	2r	4B-	2r	8.e-	8.ee-
.	.	.	.	16b-	16gg
4AA-	.	4c	.	8.a-	8.ff
.	.	.	.	16g	16ee-
=74	=74	=74	=74	=74	=74
8BB-	2r	8d	2r	8.f	8.dd
4r	.	4.r	.	.	.
.	.	.	.	16e-	16cc
.	.	.	.	8d	8.b-
16r	.	.	.	8r	.
16C	.	.	.	.	16ee-
=75	=75	=75	=75	=75	=75
4FF	2r	4A-	2r	8.cc	8.aa-
.	.	.	.	16b-	16gg
4GG	.	4B-	.	8.a-	8.ff
.	.	.	.	16g	16ee
=76	=76	=76	=76	=76	=76
8AA-	2r	8c	2r	4f	8.ff
4r	.	4.r	.	.	.
.	.	.	.	.	32cc
.	.	.	.	.	32a-
.	.	.	.	4r	8f
16r	.	.	.	.	16r
16BB-	.	.	.	.	16b-
=77	=77	=77	=77	=77	=77
4EE-	2r	4G	2r	8.b-	8.gg
.	.	.	.	16a-	16ff
4FF	.	4A-	.	8.g	8.ee-
.	.	.	.	16f	16dd
=78	=78	=78	=78	=78	=78
4GG	2r	8B-	2r	4e-	8.ee-
.	.	8r	.	.	.
.	.	.	.	.	32b-
.	.	.	.	.	32g
8.r	.	8.e-	.	8.r	8.e-
16EE-	.	16e-	.	16B-	16bb-
=79	=79	=79	=79	=79	=79
4AA-	2r	4e-	2r	4c	8.aa-
.	.	.	.	.	16gg
4AA	.	4f	.	4cc	8.ff
.	.	.	.	.	16ee-
=80	=80	=80	=80	=80	=80
4BB-	4..r	4f	4..r	4f	8.dd
.	.	.	.	.	16cc
8.r	.	8.r	.	8.r	8b-
.	.	.	.	.	16r
16BB-	16r	16r	16r	16r	16b-
=81	=81	=81	=81	=81	=81
4E-	2r	4e-	2r	2B-	8.g
.	.	.	.	.	16b-
4D-	.	8.G	.	.	8.ee-
.	.	16B-	.	.	16g
=82	=82	=82	=82	=82	=82
8C	2r	4A-	2r	4c	8.a-
4r	.	.	.	.	.
.	.	.	.	.	16cc
.	.	8.r	.	4r	8.ee-
16r	.	.	.	.	.
16B-	.	16g	.	.	16ee
=83	=83	=83	=83	=83	=83
4A-	2r	4a-	2r	[2cc	8.ff
.	.	.	.	.	16aa-
4E	.	8.b-	.	.	8.gg
.	.	16g	.	.	16bb-
=84	=84	=84	=84	=84	=84
4F	2r	4a-	2r	4cc]	8.aa-
.	.	.	.	.	16gg
8.r	.	8.r	.	8.r	8ff
.	.	.	.	.	16r
16B-	.	16d-	.	16g	16ee
=85	=85	=85	=85	=85	=85
8.A-	2r	8.c	2r	8.a-	8.ff
16E	.	16B-	.	16dd-	16gg
8.F	.	8.A-	.	8.cc	8.aa-
16A-	.	16c-	.	16f	16dd
=86	=86	=86	=86	=86	=86
8.G	2r	8.B-	2r	8.g	8.ee-
16D	.	16A-	.	16cc-	16ff
8.E-	.	8.G	.	8.b-	8.gg
16GG	.	16G	.	16b-	16ee-
=87	=87	=87	=87	=87	=87
4..AA-	2r	4..A-	2r	8.a-	8.cc
.	.	.	.	16g	16b-
.	.	.	.	8.f	8.a-
16AA	.	16A	.	16e-	16g
=88	=88	=88	=88	=88	=88
4BB-	2r	4B-	2r	4e-	4g
8.r	.	4r	.	8d	8f
.	.	.	.	16r	16r
16BB-	.	.	.	16b-	16b-
=89	=89	=89	=89	=89	=89
4GG	2r	4B-	2r	8.e-	8.ee-
.	.	.	.	16b-	16gg
4AA-	.	4c	.	8.a-	8.ff
.	.	.	.	16g	16ee-
=90	=90	=90	=90	=90	=90
4BB-	2r	8d	2r	8.f	8.dd
.	.	4.r	.	.	.
.	.	.	.	16e-	16cc
4r	.	.	.	8d	8.b-
.	.	.	.	8r	.
.	.	.	.	.	16b-
=91	=91	=91	=91	=91	=91
4D	2r	8.d	2r	[2b-	8.aa-
.	.	16a-	.	.	16ff
4E-	.	8.e-	.	.	8.gg
.	.	16g	.	.	16ee-
=92	=92	=92	=92	=92	=92
4BB-	2r	8.f	2r	4b-]	8.dd
.	.	16e-	.	.	16cc
4r	.	8d	.	4r	8b-
.	.	8r	.	.	16r
.	.	.	.	.	16ee-
=93	=93	=93	=93	=93	=93
4D-	2r	4B-	2r	[2e-	8.g
.	.	.	.	.	16ee-
4C	.	4A-	.	.	8.a-
.	.	.	.	.	16ee-
=94	=94	=94	=94	=94	=94
4GG	2r	4d-	2r	4e-]	8.b-
.	.	.	.	.	16cc
8.r	.	4r	.	8.r	8dd-
.	.	.	.	.	16r
16e-	.	.	.	16g	16b-
=95	=95	=95	=95	=95	=95
8A-	2r	2r	2r	8.a-	8.cc
4r	.	.	.	.	.
.	.	.	.	16b-	16dd-
.	.	.	.	8cc	8ee-
16r	.	.	.	16r	16r
16c	.	.	.	16e	16g
=96	=96	=96	=96	=96	=96
8F	2r	2r	2r	8.f	8.a-
4r	.	.	.	.	.
.	.	.	.	16g	16b-
.	.	.	.	8a-	8cc
16r	.	.	.	16r	16r
16c-	.	.	.	16d	16f
=97	=97	=97	=97	=97	=97
8D	2r	2r	2r	8.f	8.a-
4r	.	.	.	.	.
.	.	.	.	16g-	16b-
.	.	.	.	8a-	8cc-
16r	.	.	.	16r	16r
16DD	.	.	.	16a-	16cc-
=98	=98	=98	=98	=98	=98
4EE-	2r	2r	2r	8g	8b-
.	.	.	.	16r	16r
.	.	.	.	16g	16b-
4AA-	.	.	.	8f	8a-
.	.	.	.	16r	16r
.	.	.	.	16f	16a-
=99	=99	=99	=99	=99	=99
4BB-	2r	2r	2r	8e-	8g
.	.	.	.	16r	16r
.	.	.	.	16e-	16g
4BB-	.	.	.	8d	8f
.	.	.	.	16r	16r
.	.	.	.	16d	16f
=100	=100	=100	=100	=100	=100
8.E-	2r	[2E-	2r	4e-	4e-
16G	.	.	.	.	.
8.B-	.	.	.	8.r	8.r
16G	.	.	.	16e-	16ee-
=101	=101	=101	=101	=101	=101
8.A-	2r	2E-_	2r	8.f	4dd
16B-	.	.	.	16g	.
8.c	.	.	.	8.a-	4cc
16d	.	.	.	16a-	.
=102	=102	=102	=102	=102	=102
8.e-	2r	2E-_	2r	8.g	8.b-
16f	.	.	.	16f	16a-
8g	.	.	.	8.e-	8g
16r	.	.	.	.	16r
16G	.	.	.	16B-	16e-
=103	=103	=103	=103	=103	=103
8.A-	2r	2E-_	2r	8.c	8.f
16B-	.	.	.	16d-	16g
8.c	.	.	.	8.c	8.a-
16d	.	.	.	16a-	16cc
=104	=104	=104	=104	=104	=104
4e-	2r	2E-_	2r	4g	8.b-
.	.	.	.	.	16g
8.r	.	.	.	8.r	8e-
.	.	.	.	.	16r
16G	.	.	.	16e-	16ee-
=105	=105	=105	=105	=105	=105
8.A-	2r	2E-_	2r	8.f	4dd
16B-	.	.	.	16g	.
8.c	.	.	.	8.a-	4cc
16d	.	.	.	16a-	.
=106	=106	=106	=106	=106	=106
8.e-	2r	2E-_	2r	8.g	8.b-
16f	.	.	.	16f	16a-
8g	.	.	.	8e-	8g
16r	.	.	.	16r	16r
16G	.	.	.	16B-	16b-
=107	=107	=107	=107	=107	=107
8.A-	2r	2E-_	4..r	8.c	4b-
16B-	.	.	.	16d	.
8.c	.	.	.	8.e-	8.a-
16d	.	.	16r	16A-	16f
=108	=108	=108	=108	=108	=108
4e-	4..r	4E-]	2r	4G	4e-
8.r	.	8.r	.	8.r	8.r
16r	16r	16r	.	16r	16b-
=109	=109	=109	=109	=109	=109
4..r	2r	4..r	2r	2r	4g
.	.	.	.	.	4a-
16F	.	16A-	.	.	.
=110	=110	=110	=110	=110	=110
4D	2r	4F	2r	2r	8b-
.	.	.	.	.	4r
4E-	.	4G	.	.	.
.	.	.	.	.	16r
.	.	.	.	.	16cc
=111	=111	=111	=111	=111	=111
4F	2r	4A-	2r	2r	4f
8.r	.	8.r	.	.	4g
16E-	.	16G	.	.	.
=112	=112	=112	=112	=112	=112
4C	2r	4E-	2r	2r	8a-
.	.	.	.	.	4r
4D	.	4F	.	.	.
.	.	.	.	.	16r
.	.	.	.	.	16b-
=113	=113	=113	=113	=113	=113
4E-	2r	4G	2r	2r	4e-
8.r	.	8.r	.	.	4f
16A-	.	16c	.	.	.
=114	=114	=114	=114	=114	=114
8.G	2r	8.B-	2r	2r	8g
.	.	.	.	.	4r
16F	.	16A-	.	.	.
8.E-	.	8.G	.	.	.
.	.	.	.	.	16r
16D	.	16F	.	.	16e-
=115	=115	=115	=115	=115	=115
4C	2r	8.E-	2r	2r	4a-
.	.	16G-	.	.	.
4C-	.	8.F	.	.	4a
.	.	16E-	.	.	.
=116	=116	=116	=116	=116	=116
8BB-	4..r	8D	4..r	4..r	8b-
4r	.	4r	.	.	4r
16r	.	16r	.	.	16r
16r	16r	16r	16r	16r	16b-
=117	=117	=117	=117	=117	=117
4G	2r	4B-	2r	4e-	16ee-
.	.	.	.	.	16gg
.	.	.	.	.	16bb-
.	.	.	.	.	16gg
4F	.	4A-	.	4f	16dd-
.	.	.	.	.	16cc
.	.	.	.	.	16dd-
.	.	.	.	.	16cc
=118	=118	=118	=118	=118	=118
4E	2r	8G	2r	8g	16dd-
.	.	.	.	.	16cc
.	.	4r	.	4r	16ff
.	.	.	.	.	16ee
4r	.	.	.	.	16aa-
.	.	.	.	.	16gg
.	.	16r	.	16r	16ddd-
.	.	16e	.	16gg	16bb-
=119	=119	=119	=119	=119	=119
2r	2r	4f	2r	4ff	16aa-
.	.	.	.	.	16ccc
.	.	.	.	.	16aa-
.	.	.	.	.	16ff
.	.	4g	.	4dd-	16ee
.	.	.	.	.	16bb-
.	.	.	.	.	16gg
.	.	.	.	.	16ee
=120	=120	=120	=120	=120	=120
4..r	2r	8a-	2r	8cc	16ff
.	.	.	.	.	16f
.	.	4r	.	4r	16a-
.	.	.	.	.	16cc
.	.	.	.	.	16ff
.	.	.	.	.	16aa-
.	.	16r	.	16r	16ccc
16E	.	16c	.	16gg	16bb-
=121	=121	=121	=121	=121	=121
8.F	2r	8.a-	2r	8.ff	16aa-
.	.	.	.	.	16ccc
.	.	.	.	.	16aa-
16G	.	16g	.	16b-	16ee
8.A-	.	8.f	.	8.cc	16ff
.	.	.	.	.	16cc
.	.	.	.	.	16ff
16D	.	16B-	.	16ff	16aa-
=122	=122	=122	=122	=122	=122
8.E-	2r	8.g	2r	8.ee-	16gg
.	.	.	.	.	16bb-
.	.	.	.	.	16gg
16F	.	16f	.	16a-	16dd
8.G	.	8.e-	.	8.b-	16ee-
.	.	.	.	.	16b-
.	.	.	.	.	16gg
16GG	.	16e-	.	16b-	16ee-
=123	=123	=123	=123	=123	=123
4..AA-	2r	8.e-	2r	16b-	16dd
.	.	.	.	16a-	16cc
.	.	.	.	16a-	16cc
.	.	16e	.	16g	16b-
.	.	8.f	.	16g	16b-
.	.	.	.	16f	16a-
.	.	.	.	16f	16a-
16AA	.	16A	.	16e-	16g
=124	=124	=124	=124	=124	=124
4.BB-	2r	4B-	2r	4e-	4g
.	.	4r	.	8d	8f
8r	.	.	.	16r	8r
.	.	.	.	16b-	.
=125	=125	=125	=125	=125	=125
4E-	4B-	2e-	2r	4g	16r
.	.	.	.	.	16ee-
.	.	.	.	.	16dd
.	.	.	.	.	16ee-
4C	4c	.	.	4a-	16r
.	.	.	.	.	16ee-
.	.	.	.	.	16dd
.	.	.	.	.	16ee-
=126	=126	=126	=126	=126	=126
4GG	4B-	4e-	2r	4b-	16r
.	.	.	.	.	16ee-
.	.	.	.	.	16ccc
.	.	.	.	.	16bb-
4r	4r	4r	.	8.r	16aa-
.	.	.	.	.	16gg
.	.	.	.	.	16ff
.	.	.	.	16cc	16ee-
=127	=127	=127	=127	=127	=127
4BB-	2r	4a-	2r	4f	16ee-
.	.	.	.	.	16dd
.	.	.	.	.	16ccc
.	.	.	.	.	16bb-
4EE-	.	8.g	.	4g	16ff
.	.	.	.	.	16ee-
.	.	.	.	.	16ccc
.	.	16e-	.	.	16bb-
=128	=128	=128	=128	=128	=128
4BB-	2r	4B-	2r	4f	16ee-
.	.	.	.	.	16dd
.	.	.	.	.	16gg
.	.	.	.	.	16ff
4r	.	4r	.	8.r	16ee-
.	.	.	.	.	16dd
.	.	.	.	.	16cc
.	.	.	.	16b-	16b-
=129	=129	=129	=129	=129	=129
2E-	2r	4d-	2r	4g	16r
.	.	.	.	.	16ee-
.	.	.	.	.	16ff
.	.	.	.	.	16ee-
.	.	4c	.	8.a-	16r
.	.	.	.	.	16ee-
.	.	.	.	.	16ff
.	.	.	.	32g	16ee-
.	.	.	.	32a-	.
=130	=130	=130	=130	=130	=130
4D-	2r	4G	2r	8b-	16r
.	.	.	.	.	16ee-
.	.	.	.	4r	16ff
.	.	.	.	.	16ee-
4r	.	4r	.	.	16ff
.	.	.	.	.	16ee-
.	.	.	.	16r	16ff
.	.	.	.	16ee-	16ee-
=131	=131	=131	=131	=131	=131
4C	2r	4E-	2r	8a-	16r
.	.	.	.	.	16ee-
.	.	.	.	4r	16aa-
.	.	.	.	.	16ccc
4r	.	4r	.	.	8eee-
.	.	.	.	16r	8r
.	.	.	.	16cc	.
=132	=132	=132	=132	=132	=132
4AA-	2r	4c	2r	8f	16r
.	.	.	.	.	16cc
.	.	.	.	4r	16ff
.	.	.	.	.	16aa-
4r	.	4r	.	.	8ccc
.	.	.	.	16r	8r
.	.	.	.	16cc-	.
=133	=133	=133	=133	=133	=133
4FF	2r	4a-	2r	8d	16r
.	.	.	.	.	16dd
.	.	.	.	4r	16ff
.	.	.	.	.	16aa-
4r	.	4r	.	.	8ccc-
.	.	.	.	16r	8r
.	.	.	.	16cc-	.
=134	=134	=134	=134	=134	=134
4GG	2r	4g	2r	8e-	16r
.	.	.	.	.	16bb-
.	.	.	.	16r	8b-
.	.	.	.	16b-	.
4AA-	.	4f	.	8c	16r
.	.	.	.	.	16aa-
.	.	.	.	16r	8a-
.	.	.	.	16a-	.
=135	=135	=135	=135	=135	=135
4BB-	2r	4e-	2r	8B-	16r
.	.	.	.	.	16gg
.	.	.	.	16r	8g
.	.	.	.	16g	.
4BB-	.	4d	.	8A-	16r
.	.	.	.	.	16ff
.	.	.	.	16r	8f
.	.	.	.	16f	.
=136	=136	=136	=136	=136	=136
[2E-	2r	4e-	2r	8.G	16r
.	.	.	.	.	16ee-
.	.	.	.	.	8e-
.	.	.	.	16B-	.
.	.	4G	.	8.e-	8.r
.	.	.	.	16e-	16e-
=137	=137	=137	=137	=137	=137
2E-_	2r	2A-	2r	2d	8.f
.	.	.	.	.	16g
.	.	.	.	.	8.a-
.	.	.	.	.	16cc
=138	=138	=138	=138	=138	=138
2E-_	2r	2G	2r	2e-	8.b-
.	.	.	.	.	16ee-
.	.	.	.	.	8gg
.	.	.	.	.	16r
.	.	.	.	.	16e-
=139	=139	=139	=139	=139	=139
2E-]	2r	2A-	2r	2d	8.f
.	.	.	.	.	16g
.	.	.	.	.	8.a-
.	.	.	.	.	16cc
=140	=140	=140	=140	=140	=140
[2EE-	2r	2G	2r	2e-	8.b-
.	.	.	.	.	16g
.	.	.	.	.	8e-
.	.	.	.	.	16r
.	.	.	.	.	16e-
=141	=141	=141	=141	=141	=141
2EE-_	2r	2A-	2r	2d	16g
.	.	.	.	.	16f
.	.	.	.	.	16a-
.	.	.	.	.	16g
.	.	.	.	.	16b-
.	.	.	.	.	16a-
.	.	.	.	.	16cc
.	.	.	.	.	16b-
=142	=142	=142	=142	=142	=142
2EE-_	2r	2G	2r	2e-	16b-
.	.	.	.	.	16ee-
.	.	.	.	.	16gg
.	.	.	.	.	16ff
.	.	.	.	.	16ee-
.	.	.	.	.	16dd
.	.	.	.	.	16cc
.	.	.	.	.	16b-
=143	=143	=143	=143	=143	=143
2EE-_	2r	2F	2r	2d	16a-
.	.	.	.	.	16g
.	.	.	.	.	16f
.	.	.	.	.	16e-
.	.	.	.	.	16d
.	.	.	.	.	16c
.	.	.	.	.	16B-
.	.	.	.	.	16A-
=144	=144	=144	=144	=144	=144
8EE-]	2r	8G	2r	8e-	8G
4.r	.	4.r	.	4r	4.r
.	.	.	.	8b-	.
=145	=145	=145	=145	=145	=145
2r	2r	8r	2r	4g	2r
.	.	8e-	.	.	.
.	.	8e-	.	4a-	.
.	.	8e-	.	.	.
=146	=146	=146	=146	=146	=146
2r	2r	8e-	2r	4b-	2r
.	.	16d	.	.	.
.	.	16c	.	.	.
.	.	8d	.	8r	.
.	.	8r	.	8cc	.
=147	=147	=147	=147	=147	=147
2r	2r	8r	2r	4f	2r
.	.	8d-	.	.	.
.	.	8d-	.	4g	.
.	.	8d-	.	.	.
=148	=148	=148	=148	=148	=148
2r	2r	8d-	2r	4a-	2r
.	.	16c	.	.	.
.	.	16B-	.	.	.
.	.	8c	.	8r	.
.	.	8r	.	8cc	.
=149	=149	=149	=149	=149	=149
2r	2r	8r	2r	4d	2r
.	.	8A-	.	.	.
.	.	8G	.	8e-	.
.	.	8e-	.	16f	.
.	.	.	.	16g	.
=150	=150	=150	=150	=150	=150
2r	2r	8c	2r	16a-	2r
.	.	.	.	16g	.
.	.	8f	.	16a-	.
.	.	.	.	16g	.
.	.	8c	.	16a-	.
.	.	.	.	16cc	.
.	.	8d	.	16b-	.
.	.	.	.	16a-	.
=151	=151	=151	=151	=151	=151
2r	2r	8e-	2r	16g	2r
.	.	.	.	16b-	.
.	.	8E-	.	16cc	.
.	.	.	.	16b-	.
.	.	8D	.	16f	.
.	.	.	.	16b-	.
.	.	8d	.	16cc	.
.	.	.	.	16b-	.
=152	=152	=152	=152	=152	=152
2r	2r	8C	2r	16ee-	4.r
.	.	.	.	16dd	.
.	.	8E-	.	16cc	.
.	.	.	.	16b-	.
.	.	8F	.	16a	.
.	.	.	.	16g	.
.	.	8A	.	16f	8ee-
.	.	.	.	16cc	.
=153	=153	=153	=153	=153	=153
2r	2r	4B-	2r	8f	4dd
.	.	.	.	8b-	.
.	.	4r	.	8b-	4ee-
.	.	.	.	8b-	.
=154	=154	=154	=154	=154	=154
2r	2r	2r	2r	8b-	4ff
.	.	.	.	16a	.
.	.	.	.	16g	.
.	.	.	.	8a	8r
.	.	.	.	8r	8gg
=155	=155	=155	=155	=155	=155
2r	2r	2r	2r	8r	4cc
.	.	.	.	8a-	.
.	.	.	.	8a-	4dd
.	.	.	.	8a-	.
=156	=156	=156	=156	=156	=156
2r	2r	2r	2r	8a-	4ee-
.	.	.	.	16g	.
.	.	.	.	16f	.
.	.	.	.	8g	8r
.	.	.	.	8r	8gg
=157	=157	=157	=157	=157	=157
2r	2r	2r	2r	8r	4a
.	.	.	.	8e-	.
.	.	.	.	8d	8b-
.	.	.	.	8b-	16cc
.	.	.	.	.	16dd
=158	=158	=158	=158	=158	=158
2r	2r	2r	2r	8g	16ee-
.	.	.	.	.	16dd
.	.	.	.	8cc	16ee-
.	.	.	.	.	16dd
.	.	.	.	8g	16ee-
.	.	.	.	.	16gg
.	.	.	.	8a	16ff
.	.	.	.	.	16ee-
=159	=159	=159	=159	=159	=159
2r	2r	2r	2r	8b-	16dd
.	.	.	.	.	16b-
.	.	.	.	16B-	16dd
.	.	.	.	16c	16ee-
.	.	.	.	16d	16ff
.	.	.	.	16B-	16dd
.	.	.	.	16d	16ff
.	.	.	.	16e-	16gg
=160	=160	=160	=160	=160	=160
4.r	2r	2r	2r	8f	16aa-
.	.	.	.	.	16gg
.	.	.	.	8a-	16ff
.	.	.	.	.	16ee-
.	.	.	.	8b-	16dd
.	.	.	.	.	16cc
8BB-	.	.	.	8d	16b-
.	.	.	.	.	16ff
=161	=161	=161	=161	=161	=161
4GG	2r	2r	2r	8e-	8gg
.	.	.	.	8b-	8ee-
4AA-	.	.	.	8cc	8ee-
.	.	.	.	8cc	8ee-
=162	=162	=162	=162	=162	=162
4BB-	2r	2r	2r	4f	8ee-
.	.	.	.	.	16dd
.	.	.	.	.	16cc
8r	.	.	.	4r	8dd
8C	.	.	.	.	8r
=163	=163	=163	=163	=163	=163
4FF	2r	2r	2r	8.a-	8r
.	.	.	.	.	8dd-
.	.	.	.	32g	.
.	.	.	.	32a-	.
4GG	.	.	.	8b-	8dd-
.	.	.	.	8g	8dd-
=164	=164	=164	=164	=164	=164
4AA-	2r	2r	2r	4e-	8dd-
.	.	.	.	.	16cc
.	.	.	.	.	16b-
8r	.	.	.	[4a-	8cc
8C	.	.	.	.	8r
=165	=165	=165	=165	=165	=165
4DD	2r	2r	2r	8a-]	8r
.	.	.	.	16g	8b-
.	.	.	.	16f	.
8EE-	.	.	.	16g	8b-
.	.	.	.	16f	.
16FF	.	.	.	16e-	8b-
16GG	.	.	.	16d	.
=166	=166	=166	=166	=166	=166
16AA-	2r	2r	2r	8c	8b-
16GG	.	.	.	.	.
16AA-	.	.	.	8cc	8e-
16GG	.	.	.	.	.
16AA-	.	.	.	8cc	8a-
16BB-	.	.	.	.	.
16C	.	.	.	8cc	8a-
16D	.	.	.	.	.
=167	=167	=167	=167	=167	=167
16E-	2r	4.r	2r	4.b-	4a-
16D	.	.	.	.	.
16E-	.	.	.	.	.
16D	.	.	.	.	.
8E-	.	.	.	.	8g
8E	.	8cc	.	[8gg	8b-
=168	=168	=168	=168	=168	=168
4F	2r	4a-	2r	8gg]	4c
.	.	.	.	8ff	.
4d-	.	4b-	.	8ff	4r
.	.	.	.	8ff	.
=169	=169	=169	=169	=169	=169
4c	2r	4cc	2r	8ff	8.g
.	.	.	.	16ee	.
.	.	.	.	16dd	32f#
.	.	.	.	.	32g
4r	.	8r	.	8ee	8cc
.	.	8cc	.	8r	16c
.	.	.	.	.	16d
=170	=170	=170	=170	=170	=170
4r	2r	4g	2r	8r	8e-
.	.	.	.	8ee-	8cc
4F	.	4a	.	8ee-	8cc
.	.	.	.	8ee-	8cc
=171	=171	=171	=171	=171	=171
4B-	2r	4b-	2r	8ee-	8.f
.	.	.	.	16dd	.
.	.	.	.	16cc	32e
.	.	.	.	.	32f
4r	.	8r	.	8dd	8b-
.	.	8b-	.	8r	16B-
.	.	.	.	.	16c
=172	=172	=172	=172	=172	=172
4r	2r	4f	2r	8r	8d-
.	.	.	.	8dd-	8b-
4EE-	.	4g	.	8dd-	8b-
.	.	.	.	8dd-	8b-
=173	=173	=173	=173	=173	=173
8AA-	2r	8a-	2r	8dd-	8b-
8A-	.	4e-	.	16cc	16a-
.	.	.	.	16b-	16g
8A-	.	.	.	8cc	8a-
8A-	.	8cc	.	8r	8r
=174	=174	=174	=174	=174	=174
8A-	2r	4.b-	2r	8r	2r
16G	.	.	.	8e-	.
16F	.	.	.	.	.
8G	.	.	.	8ee-	.
8r	.	8e-	.	8ee-	.
=175	=175	=175	=175	=175	=175
8r	2r	4.f	2r	8ee-	2r
8BB-	.	.	.	16dd-	.
.	.	.	.	16cc	.
8B-	.	.	.	8dd-	.
8B-	.	8dd-	.	8r	.
=176	=176	=176	=176	=176	=176
8B-	2r	4.cc	2r	8r	2r
16A-	.	.	.	8f	.
16G	.	.	.	.	.
8A-	.	.	.	8ff	.
8r	.	8f	.	8ff	.
=177	=177	=177	=177	=177	=177
8r	2r	4.g	2r	8ff	2r
8C	.	.	.	16ee-	.
.	.	.	.	16dd	.
8c	.	.	.	8ee-	.
8c	.	8ee-	.	8r	.
=178	=178	=178	=178	=178	=178
8c	2r	4.dd	2r	8r	4.r
16B	.	.	.	8g	.
16A	.	.	.	.	.
8B	.	.	.	8gg	.
8GG	.	8B	.	8gg	8gg
=179	=179	=179	=179	=179	=179
2AA-	2r	8c	2r	8gg	4ee-
.	.	8cc	.	16ee-	.
.	.	.	.	16dd	.
.	.	8cc	.	8cc	4ff
.	.	8cc	.	8c	.
=180	=180	=180	=180	=180	=180
4GG	2r	8cc	2r	8.d	4gg
.	.	16b	.	.	.
.	.	16a	.	32c#	.
.	.	.	.	32d	.
4r	.	8b	.	8g	8r
.	.	8r	.	16G	8gg
.	.	.	.	16A	.
=181	=181	=181	=181	=181	=181
4r	2r	8r	2r	8B-	4dd
.	.	8b-	.	8g	.
4CC	.	8b-	.	8g	4ee
.	.	8b-	.	8g	.
=182	=182	=182	=182	=182	=182
4FF	2r	8b-	2r	8.c	4ff
.	.	16a	.	.	.
.	.	16g	.	32B	.
.	.	.	.	32c	.
4r	.	8a	.	8f	8r
.	.	8r	.	16f	8ff
.	.	.	.	16g	.
=183	=183	=183	=183	=183	=183
4r	2r	8r	2r	8a-	4cc
.	.	8a-	.	8f	.
4BB-	.	8a-	.	8f	4dd
.	.	8a-	.	8f	.
=184	=184	=184	=184	=184	=184
4E-	2r	8a-	2r	8f	4ee-
.	.	16g	.	16e-	.
.	.	16f	.	16d	.
8r	.	8g	.	8e-	8r
8E-	.	8b-	.	16ee-	[8gg
.	.	.	.	16dd	.
=185	=185	=185	=185	=185	=185
4AA-	2r	4cc	2r	2cc	8gg]
.	.	.	.	.	16ff
.	.	.	.	.	16ee
4AA	.	4f	.	.	8ff
.	.	.	.	.	8ee-
=186	=186	=186	=186	=186	=186
[2BB-	2r	4b-	2r	4f	8dd
.	.	.	.	.	8ff
.	.	8r	.	4r	8ccc
.	.	8d	.	.	8bb-
=187	=187	=187	=187	=187	=187
16BB-]	2r	4e-	2r	4.r	4gg
16AA	.	.	.	.	.
16BB-	.	.	.	.	.
16AA	.	.	.	.	.
8BB-	.	8f	.	.	8.aa-
8BB-	.	8a-	.	8ff	.
.	.	.	.	.	32gg
.	.	.	.	.	32aa-
=188	=188	=188	=188	=188	=188
[2BB-	2r	4f	2r	4dd	4bb-
.	.	8.g	.	8.ee	8r
.	.	.	.	.	8ccc
.	.	32f	.	32dd	.
.	.	32g	.	32ee	.
=189	=189	=189	=189	=189	=189
16BB-]	2r	4a-	2r	4ff	4ff
16AA	.	.	.	.	.
16BB-	.	.	.	.	.
16AA	.	.	.	.	.
8BB-	.	8r	.	8r	8.gg
8BB-	.	8g	.	8ee-	.
.	.	.	.	.	32ff
.	.	.	.	.	32gg
=190	=190	=190	=190	=190	=190
[2BB-	2r	4e-	2r	4cc	4aa-
.	.	8.f	.	8.dd	8r
.	.	.	.	.	8bb-
.	.	32e-	.	32cc	.
.	.	32f	.	32dd	.
=191	=191	=191	=191	=191	=191
16BB-]	2r	4g	2r	4ee-	4ee-
16AA	.	.	.	.	.
16BB-	.	.	.	.	.
16AA	.	.	.	.	.
8BB-	.	8r	.	8r	4ff
8BB-	.	8a	.	8dd	.
=192	=192	=192	=192	=192	=192
[2BB-	2r	2g-	2r	4ee-	4.gg-
.	.	.	.	4a	.
.	.	.	.	.	16ff
.	.	.	.	.	16ee-
=193	=193	=193	=193	=193	=193
4BB-]	2r	4f	2r	4b-	16dd
.	.	.	.	.	16ee-
.	.	.	.	.	16ff
.	.	.	.	.	16gg-
8r	.	4r	.	4r	16ff
.	.	.	.	.	16b-
8BB-	.	.	.	.	16cc
.	.	.	.	.	16dd
=194	=194	=194	=194	=194	=194
4GG	2r	4B-	2r	4e-	16ee-
.	.	.	.	.	16gg
.	.	.	.	.	16bb-
.	.	.	.	.	16gg
8.FF	.	4A-	.	4f	16dd-
.	.	.	.	.	16cc
.	.	.	.	.	16dd-
32EE	.	.	.	.	16cc
32FF	.	.	.	.	.
=195	=195	=195	=195	=195	=195
4EE	2r	8G	2r	8g	16dd-
.	.	.	.	.	16cc
.	.	4r	.	4r	16ff
.	.	.	.	.	16ee
4r	.	.	.	.	16aa-
.	.	.	.	.	16gg
.	.	16r	.	16r	16ddd-
.	.	16e	.	16gg	16bb-
=196	=196	=196	=196	=196	=196
2r	2r	4f	2r	4ff	16aa-
.	.	.	.	.	16ccc
.	.	.	.	.	16aa-
.	.	.	.	.	16ff
.	.	8.g	.	4dd-	16ee
.	.	.	.	.	16bb-
.	.	.	.	.	16gg
.	.	32f	.	.	16ee
.	.	32g	.	.	.
=197	=197	=197	=197	=197	=197
4..r	2r	8a-	2r	8cc	16ff
.	.	.	.	.	16f
.	.	4r	.	4r	16a-
.	.	.	.	.	16cc
.	.	.	.	.	16ff
.	.	.	.	.	16aa-
.	.	16r	.	16r	16ccc
16E	.	16c	.	16gg	16bb-
=198	=198	=198	=198	=198	=198
8.F	2r	8.a-	2r	8.ff	16aa-
.	.	.	.	.	16ccc
.	.	.	.	.	16aa-
16G	.	16g	.	16b-	16ee
8.A-	.	8.f	.	8.cc	16ff
.	.	.	.	.	16cc
.	.	.	.	.	16ff
16D	.	16B-	.	16ff	16aa-
=199	=199	=199	=199	=199	=199
8.E-	2r	8.g	2r	8.ee-	16gg
.	.	.	.	.	16bb-
.	.	.	.	.	16gg
16F	.	16f	.	16a-	16dd
8.G	.	8.e-	.	8.b-	16ee-
.	.	.	.	.	16b-
.	.	.	.	.	16gg
16GG	.	16e-	.	16b-	16ee-
=200	=200	=200	=200	=200	=200
4..AA-	2r	8.e-	2r	16b-	16dd
.	.	.	.	16a-	16cc
.	.	.	.	16a-	16cc
.	.	16e	.	16g	16b-
.	.	8.f	.	16g	16b-
.	.	.	.	16f	16a-
.	.	.	.	16f	16a-
16AA	.	16A	.	16e-	16g
=201	=201	=201	=201	=201	=201
4BB-	2r	4B-	2r	4e-	4g
4r	.	8.r	.	8d	8f
.	.	.	.	8r	8r
.	.	16b-	.	.	.
=202	=202	=202	=202	=202	=202
4E-	2r	4g	4B-	2e-	16r
.	.	.	.	.	16ee-
.	.	.	.	.	16dd
.	.	.	.	.	16ee-
4C	.	4a-	4c	.	16r
.	.	.	.	.	16ee-
.	.	.	.	.	16dd
.	.	.	.	.	16ee-
=203	=203	=203	=203	=203	=203
4GG	2r	4b-	4B-	4e-	16r
.	.	.	.	.	16ee-
.	.	.	.	.	16ccc
.	.	.	.	.	16bb-
4r	.	8.r	4r	4r	16aa-
.	.	.	.	.	16gg
.	.	.	.	.	16ff
.	.	16cc	.	.	16ee-
=204	=204	=204	=204	=204	=204
4BB-	2r	4f	2r	4a-	16ee-
.	.	.	.	.	16dd
.	.	.	.	.	16ccc
.	.	.	.	.	16bb-
4EE-	.	4g	.	8.g	16ff
.	.	.	.	.	16ee-
.	.	.	.	.	16ccc
.	.	.	.	16e-	16bb-
=205	=205	=205	=205	=205	=205
4BB-	2r	4f	2r	4B-	16ee-
.	.	.	.	.	16dd
.	.	.	.	.	16gg
.	.	.	.	.	16ff
4r	.	8.r	.	4r	16ee-
.	.	.	.	.	16dd
.	.	.	.	.	16cc
.	.	16b-	.	.	16b-
=206	=206	=206	=206	=206	=206
2E-	2r	4g	2r	4d-	16r
.	.	.	.	.	16ee-
.	.	.	.	.	16ff
.	.	.	.	.	16ee-
.	.	8.a-	.	4c	16r
.	.	.	.	.	16ee-
.	.	.	.	.	16ff
.	.	32g	.	.	16ee-
.	.	32a-	.	.	.
=207	=207	=207	=207	=207	=207
4D-	2r	4b-	2r	4G	16r
.	.	.	.	.	16ee-
.	.	.	.	.	16ff
.	.	.	.	.	16ee-
4r	.	8.r	.	4r	16ff
.	.	.	.	.	16ee-
.	.	.	.	.	16ff
.	.	16ee-	.	.	16ee-
=208	=208	=208	=208	=208	=208
4C	2r	8a-	2r	4e-	16r
.	.	.	.	.	16ee-
.	.	4r	.	.	16aa-
.	.	.	.	.	16ccc
4r	.	.	.	4r	8eee-
.	.	16r	.	.	8r
.	.	16cc	.	.	.
=209	=209	=209	=209	=209	=209
4AA-	2r	8f	2r	4cc	16r
.	.	.	.	.	16cc
.	.	4r	.	.	16ff
.	.	.	.	.	16aa-
4r	.	.	.	4r	8ccc
.	.	16r	.	.	8r
.	.	16cc-	.	.	.
=210	=210	=210	=210	=210	=210
4FF	2r	8d	2r	4a-	16r
.	.	.	.	.	16dd
.	.	4r	.	.	16ff
.	.	.	.	.	16aa-
4r	.	.	.	4r	8ccc-
.	.	16r	.	.	8r
.	.	16cc-	.	.	.
=211	=211	=211	=211	=211	=211
4GG	2r	8e-	2r	4g	16r
.	.	.	.	.	16bb-
.	.	16r	.	.	8b-
.	.	16b-	.	.	.
4AA-	.	8c	.	4f	16r
.	.	.	.	.	16aa-
.	.	16r	.	.	8a-
.	.	16a-	.	.	.
=212	=212	=212	=212	=212	=212
4BB-	2r	8B-	2r	4e-	16r
.	.	.	.	.	16gg
.	.	16r	.	.	8g
.	.	16g	.	.	.
4BB-	.	8A-	.	4d	16r
.	.	.	.	.	16ff
.	.	16r	.	.	8f
.	.	16f	.	.	.
=213	=213	=213	=213	=213	=213
[2E-	2r	8.G	2r	4e-	16r
.	.	.	.	.	16ee-
.	.	.	.	.	8e-
.	.	16B-	.	.	.
.	.	8e-	.	4ee-	8r
.	.	8e-	.	.	8ee-
=214	=214	=214	=214	=214	=214
2E-_	2r	2a-	2r	2dd	8.ff
.	.	.	.	.	16gg
.	.	.	.	.	8.aa-
.	.	.	.	.	16ccc
=215	=215	=215	=215	=215	=215
2E-_	2r	2g	2r	2ee-	8.bb-
.	.	.	.	.	16eee-
.	.	.	.	.	8ggg
.	.	.	.	.	16r
.	.	.	.	.	16ee-
=216	=216	=216	=216	=216	=216
2E-_	2r	2a-	2r	2dd	8.ff
.	.	.	.	.	16gg
.	.	.	.	.	8.aa-
.	.	.	.	.	16ccc
=217	=217	=217	=217	=217	=217
2E-]	2r	2g	2r	2ee-	8.bb-
.	.	.	.	.	16gg
.	.	.	.	.	8ee-
.	.	.	.	.	16r
.	.	.	.	.	16ee-
=218	=218	=218	=218	=218	=218
[2EE-	2r	2f 2B-	2r	2A- 2d	16gg
.	.	.	.	.	16ff
.	.	.	.	.	16aa-
.	.	.	.	.	16gg
.	.	.	.	.	16bb-
.	.	.	.	.	16aa-
.	.	.	.	.	16ccc
.	.	.	.	.	16bb-
=219	=219	=219	=219	=219	=219
2EE-_	2r	2e- 2B-	2r	2G 2e-	16bb-
.	.	.	.	.	16eee-
.	.	.	.	.	16ggg
.	.	.	.	.	16fff
.	.	.	.	.	16eee-
.	.	.	.	.	16ddd
.	.	.	.	.	16ccc
.	.	.	.	.	16bb-
=220	=220	=220	=220	=220	=220
2EE-_	2r	2B- 2f	2r	2B- 2d	16aa-
.	.	.	.	.	16gg
.	.	.	.	.	16ff
.	.	.	.	.	16ee-
.	.	.	.	.	16dd
.	.	.	.	.	16ccc
.	.	.	.	.	16bb-
.	.	.	.	.	16aa-
=221	=221	=221	=221	=221	=221
4EE-]	2r	4g 4B-	2r	4e- 4B-	8gg
.	.	.	.	.	16gg
.	.	.	.	.	16ff
4r	.	4r	.	4r	16ee-
.	.	.	.	.	16dd
.	.	.	.	.	16cc
.	.	.	.	.	16b-
=222	=222	=222	=222	=222	=222
2BB-	2r	2F	2r	2d	16a-
.	.	.	.	.	16g
.	.	.	.	.	16f
.	.	.	.	.	16e-
.	.	.	.	.	16d
.	.	.	.	.	16c
.	.	.	.	.	16B-
.	.	.	.	.	16A-
=223	=223	=223	=223	=223	=223
8E-	2r	8E-	2r	8e-	16G
.	.	.	.	.	16B-
8r	.	8r	.	8r	16e-
.	.	.	.	.	16g
8BB-	.	8d	.	8a-	16B-
.	.	.	.	.	16d
8r	.	8r	.	8r	16f
.	.	.	.	.	16a-
=224	=224	=224	=224	=224	=224
8E-	2r	8e-	2r	8g	16g
.	.	.	.	.	16b-
8r	.	8r	.	8r	16dd
.	.	.	.	.	16ee-
8B-	.	8a-	.	8dd	16b-
.	.	.	.	.	16dd
8r	.	8r	.	8r	16ff
.	.	.	.	.	16aa-
=225	=225	=225	=225	=225	=225
8E-	2r	8b-	2r	8ee-	8gg
8r	.	8r	.	8r	8r
8BB-	.	8a-	.	8ff	8dd 8bb-
8r	.	8r	.	8r	8r
=226	=226	=226	=226	=226	=226
8E-	2r	8g	2r	8gg	8ee- 8gg
8r	.	8r	.	8r	8r
8BB-	.	8a- 8B-	.	8ff 8d 8b-	8ff 8b- 8d
8r	.	8r	.	8r	8r
=227	=227	=227	=227	=227	=227
4EE-	2r	4g 4B-	2r	4gg 4b- 4e-	4gg 4b- 4e-
4r	.	4r	.	4r	4r
==	==	==	==	==	==
*-	*-	*-	*-	*-	*-
!!!RWG1: This file contains only pitch and duration data.
!!!RWG2: Transposing instruments are not transposed.
!!!RWG3: Spines may have incompatible meters.
!!!RWG4: Durations of rests and tied notes may be interpreted.
!!!RWG: Key is interpreted using the Humdrum key tool.
!!!GTL: 6 Quartetti ("Erdödy")
!!!AFT: stage1
!!!END: 1997/04/15
!!!KEY: 1048482125
!!!EMD: Converted from MuseData to Humdrum Dec 16, 2000, by Andreas Kornstaedt using muse2kern.
!!!EMD: Manual editing by Craig Sapp, Nov 2001
